X:1567
T:I'm Waiting For You.
T:taim ag fuirea.c leatsa.
R:Hornpipe
B:O'Neill's 1567
M:2/4
K:G
D2|G3B AGED|GBdg e3f|agfge dBAc|BGAF GFED|
G3B AGED|GBdg e3f|agfge dBge|dBAB G2:|
z2|g2dg edgd|eaab agef|g2dg edgd|egfa g2ga|
3bc'b bg 3aba af|3gag ge def|agfge dBge|dBAB G2:|
